X: 35329
T: Rosemary Lane
R: jig
M: 6/8
K: Dmajor
|:AG|FEF DFA|dce dcB|~A3 AFD|~E3 EAG|
FEF DFA|dce d2g|~f3 gec|edc d:|
|:fg|aba fed|gag eBe|fdB Bcd|ecA ABc|
dcd AFA|Bge cBA|~f3 gec|1 edc d:|2 edc d3||

